assets/img/section_1.svg

<svg width="369" height="162" viewBox="0 0 369 162" fill="none" xmlns="http://www.w3.org/2000/svg">
<path d="M360.637 112.96C356.636 135.634 334.716 144.054 324.256 145.43C278.017 138.176 224.604 162.754 184.011 156.754C143.419 150.754 111.243 118.403 91.9049 107.807C72.5669 97.2108 -25.4088 88.3311 7.54198 53.1813C40.4928 18.0314 92.92 51.318 172.891 59.2134C252.863 67.1088 246.57 36.2585 282.308 25.8379C318.047 15.4174 346.462 29.9468 359.165 45.5078C371.868 61.0687 365.638 84.6176 360.637 112.96Z" fill="white"/>
<path d="M195.514 9.02848e-06C155.301 -0.00792184 122.695 32.4361 122.687 72.4661C122.682 98.6144 136.826 122.739 159.7 135.595C160.398 135.996 161.23 136.099 162.006 135.879C162.777 135.665 163.431 135.157 163.827 134.465L186.287 94.9529C187.111 93.501 186.597 91.6593 185.14 90.8379C174.909 85.1181 171.274 72.2253 177.02 62.0415C182.767 51.8577 195.718 48.239 205.949 53.9591C216.179 59.6792 219.814 72.5717 214.068 82.7555C212.158 86.1406 209.349 88.9368 205.949 90.8379C204.491 91.6593 203.978 93.501 204.801 94.9529L227.2 134.465C227.595 135.159 228.25 135.67 229.021 135.885C229.286 135.961 229.559 136 229.835 136C230.358 135.999 230.873 135.864 231.328 135.607C266.351 115.937 278.725 71.7291 258.965 36.865C246.049 14.077 221.798 -0.0130203 195.514 9.02848e-06Z" fill="url(#paint0_linear)"/>
<ellipse cx="294.737" cy="95.2733" rx="15.2625" ry="15.1885" fill="url(#paint1_linear)"/>
<ellipse cx="121.994" cy="33.8289" rx="33.9938" ry="33.8289" fill="url(#paint2_linear)"/>
<defs>
<linearGradient id="paint0_linear" x1="283.061" y1="190.29" x2="136.983" y2="-29.3412" gradientUnits="userSpaceOnUse">
<stop stop-color="#28BC00"/>
<stop offset="1" stop-color="#28BC00" stop-opacity="0"/>
</linearGradient>
<linearGradient id="paint1_linear" x1="313.077" y1="122.588" x2="279.691" y2="75.5015" gradientUnits="userSpaceOnUse">
<stop stop-color="#315EFB"/>
<stop offset="1" stop-color="#315EFB" stop-opacity="0"/>
</linearGradient>
<linearGradient id="paint2_linear" x1="158.804" y1="55.2801" x2="68.6322" y2="49.6697" gradientUnits="userSpaceOnUse">
<stop stop-color="#DADAFF"/>
<stop offset="1" stop-color="#EEEEFF" stop-opacity="0"/>
</linearGradient>
</defs>
</svg>

<svg width="369" height="162" fill="none" xmlns="http://www.w3.org/2000/svg"><path d="M360.637 112.96c-4.001 22.674-25.921 31.094-36.381 32.47-46.239-7.254-99.652 17.324-140.245 11.324-40.592-6-72.768-38.351-92.106-48.947C72.567 97.211-25.41 88.331 7.542 53.181c32.95-35.15 85.378-1.863 165.349 6.032 79.972 7.896 73.679-22.955 109.417-33.375 35.739-10.42 64.154 4.109 76.857 19.67 12.703 15.56 6.473 39.11 1.472 67.452z" fill="#fff"/><path d="M195.514 0c-40.213-.008-72.819 32.436-72.827 72.466-.005 26.148 14.139 50.273 37.013 63.129.698.401 1.53.504 2.306.284a3.03 3.03 0 001.821-1.414l22.46-39.512a3.014 3.014 0 00-1.147-4.115c-10.231-5.72-13.866-18.613-8.12-28.796 5.747-10.184 18.698-13.803 28.929-8.083 10.23 5.72 13.865 18.613 8.119 28.796a21.198 21.198 0 01-8.119 8.083 3.014 3.014 0 00-1.148 4.115l22.399 39.512a3.033 3.033 0 001.821 1.42c.265.076.538.115.814.115a3.05 3.05 0 001.493-.393c35.023-19.67 47.397-63.878 27.637-98.742C246.049 14.077 221.798-.013 195.514 0z" fill="url(#paint0_linear)"/><ellipse cx="294.737" cy="95.273" rx="15.262" ry="15.188" fill="url(#paint1_linear)"/><ellipse cx="121.994" cy="33.829" rx="33.994" ry="33.829" fill="url(#paint2_linear)"/><defs><linearGradient id="paint0_linear" x1="283.061" y1="190.29" x2="136.983" y2="-29.341" gradientUnits="userSpaceOnUse"><stop stop-color="#28BC00"/><stop offset="1" stop-color="#28BC00" stop-opacity="0"/></linearGradient><linearGradient id="paint1_linear" x1="313.077" y1="122.588" x2="279.691" y2="75.501" gradientUnits="userSpaceOnUse"><stop stop-color="#315EFB"/><stop offset="1" stop-color="#315EFB" stop-opacity="0"/></linearGradient><linearGradient id="paint2_linear" x1="158.804" y1="55.28" x2="68.632" y2="49.67" gradientUnits="userSpaceOnUse"><stop stop-color="#DADAFF"/><stop offset="1" stop-color="#EEF" stop-opacity="0"/></linearGradient></defs></svg>
